packages/ui-icons/svg/Solid/commons.svg

<svg viewBox="0 0 1920 1920" version="1.1" xmlns="http://www.w3.org/2000/svg">
    <path d="M1063.68,251 L1063.68,533.33 L714.24,533.33 C476.16,533.33 282.24,725.39 282.24,959.705 C282.24,1194.02 474.24,1386.08 712.32,1386.08 L712.32,1386.08 L1061.76,1386.08 L1061.76,1668.41 L712.32,1668.41 C320.64,1668.41 0,1351.505 0,959.705 C0,567.90125 320.64,251 712.32,251 L712.32,251 L1063.68,251 Z M1345.92,452.6675 L1920,959.705 L1920,959.7125 L1345.92,1466.7425 L1345.92,1128.7175 L741.12,1128.7175 C647.04,1128.7175 572.16,1053.815 572.16,959.705 C572.16,865.595 647.04,790.6925 741.12,790.6925 L741.12,790.6925 L1345.92,790.6925 L1345.92,452.6675 Z" stroke="none" stroke-width="1" fill-rule="evenodd"/>
</svg>

<svg viewBox="0 0 1920 1920" xmlns="http://www.w3.org/2000/svg">
    <path d="M1063.68 251v282.33H714.24c-238.08 0-432 192.06-432 426.375s192 426.375 430.08 426.375h349.44v282.33H712.32C320.64 1668.41 0 1351.505 0 959.705 0 567.901 320.64 251 712.32 251h351.36Zm282.24 201.668L1920 959.705v.007l-574.08 507.03v-338.024h-604.8c-94.08 0-168.96-74.903-168.96-169.013s74.88-169.013 168.96-169.013h604.8V452.668Z" fill-rule="evenodd"/>
</svg>
